assets/brightness.svg

<svg xmlns="http://www.w3.org/2000/svg" fill="none" viewBox="0 0 23 23">
  <circle cx="11.5" cy="11.5" r="3.5" fill="#2A2238"/>
  <path fill="#2A2238" d="M11 16h1v6.4c-.1667.8-.8333.8-1 0V16Zm0-9h1V.6c-.1667-.8-.8333-.8-1 0V7Zm-4 4.108v1H.6c-.8-.1666-.8-.8333 0-1H7ZM15.9996 11v1h6.4c.8-.1667.8-.8333 0-1h-6.4Zm-.3553 4L15 15.7648l4.8948 4.1233c.7192.3879 1.1487-.1219.6442-.7648L15.6443 15Zm-.0015-6.73444L15 7.49952l4.9027-4.11384c.72-.38656 1.1485.12414.6428.76604l-4.9027 4.11384Zm-8.2805 0 .64279-.76604-4.90268-4.11384c-.71997-.38656-1.14849.12414-.64279.76604L7.3623 8.26556Zm0 6.73444.64279.766-4.90268 4.1139c-.71997.3865-1.14849-.1242-.64279-.7661L7.3623 15Z"/>
</svg>

<svg width="23" height="23" viewBox="0 0 23 23" fill="none" xmlns="http://www.w3.org/2000/svg">
<circle cx="11.5" cy="11.5" r="3.5" fill="#2A2238"/>
<path d="M11 16H12V22.4C11.8333 23.2 11.1667 23.2 11 22.4V16Z" fill="#2A2238"/>
<path d="M11 7H12V0.6C11.8333 -0.2 11.1667 -0.2 11 0.6V7Z" fill="#2A2238"/>
<path d="M7 11.108V12.108H0.6C-0.2 11.9414 -0.2 11.2747 0.6 11.108H7Z" fill="#2A2238"/>
<path d="M15.9996 11V12H22.3996C23.1996 11.8333 23.1996 11.1667 22.3996 11H15.9996Z" fill="#2A2238"/>
<path d="M15.6443 15L15 15.7648L19.8948 19.8881C20.614 20.276 21.0435 19.7662 20.539 19.1233L15.6443 15Z" fill="#2A2238"/>
<path d="M15.6428 8.26556L15 7.49952L19.9027 3.38568C20.6227 2.99912 21.0512 3.50982 20.5455 4.15172L15.6428 8.26556Z" fill="#2A2238"/>
<path d="M7.3623 8.26556L8.00509 7.49952L3.10241 3.38568C2.38244 2.99912 1.95392 3.50982 2.45962 4.15172L7.3623 8.26556Z" fill="#2A2238"/>
<path d="M7.3623 15L8.00509 15.766L3.10241 19.8799C2.38244 20.2664 1.95392 19.7557 2.45962 19.1138L7.3623 15Z" fill="#2A2238"/>
</svg>
